packages/core/assets/Icons/arrow_circle_chevron_down_filled.svg

<svg viewBox="0 0 20 20" fill="none" xmlns="http://www.w3.org/2000/svg">
<path d="M9.99996 10.5625L8.02079 8.58329C7.86801 8.43051 7.67704 8.35413 7.44788 8.35413C7.21871 8.35413 7.02079 8.43051 6.85413 8.58329C6.68746 8.74996 6.60413 8.94788 6.60413 9.17704C6.60413 9.40621 6.68746 9.60413 6.85413 9.77079L9.41663 12.3333C9.58329 12.5 9.77774 12.5833 9.99996 12.5833C10.2222 12.5833 10.4166 12.5 10.5833 12.3333L13.1666 9.74996C13.3333 9.58329 13.4132 9.38885 13.4062 9.16663C13.3993 8.9444 13.3125 8.74996 13.1458 8.58329C12.9791 8.43051 12.7847 8.35065 12.5625 8.34371C12.3402 8.33676 12.1458 8.41663 11.9791 8.58329L9.99996 10.5625ZM9.99996 18.3333C8.84718 18.3333 7.76385 18.1145 6.74996 17.677C5.73607 17.2395 4.85413 16.6458 4.10413 15.8958C3.35413 15.1458 2.76038 14.2638 2.32288 13.25C1.88538 12.2361 1.66663 11.1527 1.66663 9.99996C1.66663 8.84718 1.88538 7.76385 2.32288 6.74996C2.76038 5.73607 3.35413 4.85413 4.10413 4.10413C4.85413 3.35413 5.73607 2.76038 6.74996 2.32288C7.76385 1.88538 8.84718 1.66663 9.99996 1.66663C11.1527 1.66663 12.2361 1.88538 13.25 2.32288C14.2638 2.76038 15.1458 3.35413 15.8958 4.10413C16.6458 4.85413 17.2395 5.73607 17.677 6.74996C18.1145 7.76385 18.3333 8.84718 18.3333 9.99996C18.3333 11.1527 18.1145 12.2361 17.677 13.25C17.2395 14.2638 16.6458 15.1458 15.8958 15.8958C15.1458 16.6458 14.2638 17.2395 13.25 17.677C12.2361 18.1145 11.1527 18.3333 9.99996 18.3333Z" fill="currentColor"/>
</svg>

<svg xmlns="http://www.w3.org/2000/svg" width="20" height="20" fill="none" viewBox="0 0 20 20">
  <path fill="#201F1F" d="m10 10.563-1.98-1.98a.777.777 0 0 0-.572-.229.849.849 0 0 0-.594.23.811.811 0 0 0-.25.593c0 .23.083.427.25.594l2.563 2.562a.8.8 0 0 0 .583.25.8.8 0 0 0 .583-.25l2.584-2.583a.763.763 0 0 0 .24-.583.838.838 0 0 0-.261-.584.879.879 0 0 0-.584-.24.763.763 0 0 0-.583.24L10 10.563Zm0 7.77a8.115 8.115 0 0 1-3.25-.656 8.415 8.415 0 0 1-2.646-1.781 8.416 8.416 0 0 1-1.781-2.646A8.115 8.115 0 0 1 1.667 10c0-1.153.218-2.236.656-3.25a8.415 8.415 0 0 1 1.781-2.646A8.415 8.415 0 0 1 6.75 2.323 8.115 8.115 0 0 1 10 1.667c1.153 0 2.236.218 3.25.656a8.416 8.416 0 0 1 2.646 1.781 8.415 8.415 0 0 1 1.781 2.646 8.115 8.115 0 0 1 .656 3.25 8.115 8.115 0 0 1-.656 3.25 8.416 8.416 0 0 1-1.781 2.646 8.416 8.416 0 0 1-2.646 1.781 8.115 8.115 0 0 1-3.25.656Z"/>
</svg>
